Yaru++/actions/16/transform-shear-down.svg

<svg viewBox="0 0 24 24" xmlns="http://www.w3.org/2000/svg">
  <path d="m20 4-1 .0996094-9 .9003906v1 9 1l1-.099609 9-.900391v-1-9zm-1 1.0996094v8.9999996l-8 .800782v-9.0000004zm-15 1.9003906v1 11 1h9 1v-1-2h-1v2h-8v-11h4v-1z" fill="#808080"/>
</svg>

<svg xmlns="http://www.w3.org/2000/svg" viewBox="0 0 24 24">
 <defs>
  <style id="current-color-scheme" type="text/css">
   .ColorScheme-Text { color:#808080; }
  </style>
 </defs>
 <path fill="#808080" class="ColorScheme-Text" d="M 20 4 L 19 4.0996094 L 10 5 L 10 6 L 10 15 L 10 16 L 11 15.900391 L 20 15 L 20 14 L 20 5 L 20 4 z M 19 5.0996094 L 19 14.099609 L 11 14.900391 L 11 5.9003906 L 19 5.0996094 z M 4 7 L 4 8 L 4 19 L 4 20 L 13 20 L 14 20 L 14 19 L 14 17 L 13 17 L 13 19 L 5 19 L 5 8 L 9 8 L 9 7 L 4 7 z"/>
</svg>
